X:1
T:Scotsman in Mexico
M:C|
L:1/8
K:D
C:Andy Hornsby
ABc|"D"d3 f- fAFA|d3f- fdcd|"G"BGBd gfed|"A"cAce agfe|!
"D"d3 f- fAFA|d3f- fdcd|"G"Bdgf "A"edce|"D"d4z:||!
faf|"A7"g2 ec- cege|"D"f2 dA- ADFA|"G"GABG "A"Ecec|"D"defd Afaf|!
"A7"g2 ec- cege|"D"f2 dA- ADFA|"G"GABE- "A"Ecec|"D"d4z:|]!
